X:1
T:I Belong to the King
T:Joseph Lincoln Hall
T:I Belong to the King
T:Public Domain
T:Public Domain
C:Joseph Lincoln Hall
Z:Public Domain
%%score 1 ( 2 3 )
L:1/8
M:3/4
K:G
V:1 treble 
V:2 bass 
V:3 bass 
V:1
 [B,D][DG] | [DB]2 [Ec]2 [DB]2 | [B,G]4 [DF][DG] | [EA]2 [EG]2 [CE]2 | [EG]4 [DF][CE] | %5
w: 1.~I be-|long to the|King; I’m a|child of His|love, I shall|
w: 2.~I be-|long to the|King, and He|loves me I|know, For His|
w: 3.~I be-|long to the|King, and His|prom- ise is|sure: That we|
 [B,D]2 [B,G]2 [DB]2 | [^CB]2 [CA]2 [CE]2 | [CA]6- | [CA]4 [B,D][B,G] | [DB]2 [Ec]2 [DB]2 | %10
w: dwell in His|pal- ace so|fair,|* For He|tells of its|
w: mer- cy and|kind- ness so|free|* Are un-|ceas- ing- ly|
w: all shall be|ga- thered at|last|* In His|king- dom above,|
 [DG]4 [DF][DG] | [EA]2 [EG]2 [CE]2 | [EG]4 [DF][CE] | [B,D]2 [Ec]2 [DB]2 | [^CA]2 [CE]2 [=CF]2 | %15
w: bliss in yon|Heav- en a-|bove, And His|child- ren in|splen- dor shall|
w: mine where- so-|ev- er I|go, And my|ref- uge un-|fail- ing is|
w: by life’s wa-|ters so pure,|When this life|with its tri-|als is past.|
 [B,G]6- | [B,G]4 ||"^Refrain" [Gd][Gd] | [Fd]2 [Fc]2 [FB]2 | [FA]4 [FB][FA] | [DG]2 [DA]2 [Gc]2 | %21
w: share.||||||
w: He.||||||
w: ||||||
 [GB]4 [DB][DB] | [^CB]2 [CA]2 [CG]2 | [^CE]2 [CF]2 [CG]2 | [CA]6- | [CA]4 [B,D][B,G] | %26
w: |||||
w: |||||
w: |||||
 [DB]2 [Ec]2 [DB]2 | [DG]4 [DF][DG] | [EA]2 [EG]2 [CE]2 | [EG]4 [DF][CE] | [B,D]2 [Ec]2 [DB]2 | %31
w: |||||
w: |||||
w: |||||
 [^CA]2 [CE]2 [=CF]2 | [B,G]4 |] %33
w: ||
w: ||
w: ||
V:2
 [G,,G,][G,,G,] | [G,,G,]2 [G,,G,]2 [G,,G,]2 | [G,,D,]4 [B,,G,][B,,G,] | [C,C]2 [C,C]2 [C,G,]2 | %4
w: ~ ~|~ ~ ~|~ ~ ~|~ ~ ~|
 [C,C]4 [C,G,][C,G,] | [G,,G,]2 [G,,D,]2 [G,,G,]2 | [A,,E,]2 [A,,E,]2 [A,,G,]2 | [D,G,]6- | %8
w: ~ ~ ~|~ ~ ~|~ ~ ~|~|
 [D,G,]4 [G,,G,][G,,G,] | [G,,G,]2 [G,,G,]2 [G,,G,]2 | [G,,B,]4 [A,,A,][B,,G,] | %11
w: * ~ ~|~ ~ ~|~ ~ ~|
 [C,C]2 [C,C]2 [C,G,]2 | [C,C]4 [C,G,][C,G,] | [G,,G,]2 [G,,G,]2 [G,,G,]2 | %14
w: ~ ~ ~|~ ~ ~|~ ~ ~|
 [A,,E,]2 [A,,A,]2 [D,A,]2 | [G,,G,]6- | [G,,G,]4 || [G,B,][G,B,] | [D,A,]2 [D,E]2 [D,D]2 | %19
w: ~ ~ ~|~||I be-|long to the|
 [D,C]4 [D,D][D,C] | [G,B,]2 [G,C]2 [G,E]2 | [G,D]4 [G,,G,][G,,G,] | [A,,E,]2 [A,,E,]2 [A,,E,]2 | %23
w: King; I’m a|child of His|love, And he|nev- er for-|
 [A,,A,]2 [A,,A,]2 [A,,G,]2 | ([D,G,]6 | [D,F,]4) [G,,G,][G,,G,] | [G,,G,]2 [G,,G,]2 [G,,G,]2 | %27
w: sak- eth His|own.|* He will|call me some|
 [G,,B,]4 [A,,A,][B,,G,] | [C,C]2 [C,C]2 [C,G,]2 | [C,C]4 [C,G,][C,G,] | %30
w: day to His|pal- ace a-|bove; I shall|
 [G,,G,]2 [G,,G,]2 [G,,G,]2 | [A,,E,]2 [A,,E,]2 D,2 | [G,,D,]4 |] %33
w: dwell by His|glor- i- fied||
V:3
 x2 | x6 | x6 | x6 | x6 | x6 | x6 | x6 | x6 | x6 | x6 | x6 | x6 | x6 | x6 | x6 | x4 || x2 | x6 | %19
w: |||||||||||||||||||
 x6 | x6 | x6 | x6 | x6 | x6 | x6 | x6 | x6 | x6 | x6 | x6 | x4 D,2 | x4 |] %33
w: ||||||||||||throne.||

